app/images/dist/sound-off.svg

<svg width="36" height="36" viewBox="0 0 36 36" fill="none" xmlns="http://www.w3.org/2000/svg">
<path d="M25.5 13.4995L30 17.9995M30 17.9995L34.5 22.4995M30 17.9995L34.5 13.4995M30 17.9995L25.5 22.4995M9.19558 24.1392L17.1281 29.8053C18.1209 30.5144 19.5 29.8048 19.5 28.5847V7.41427C19.5 6.19421 18.1209 5.48452 17.1281 6.19367L9.19558 11.8598C9.06838 11.9506 8.91597 11.9995 8.75965 11.9995L3 11.9995C2.17157 11.9995 1.5 12.6711 1.5 13.4995V22.4995C1.5 23.3279 2.17157 23.9995 3 23.9995H8.75965C8.91597 23.9995 9.06838 24.0483 9.19558 24.1392Z" stroke="white" stroke-width="2" stroke-linecap="round" stroke-linejoin="round"/>
</svg>

<svg width="36" height="36" fill="none" xmlns="http://www.w3.org/2000/svg"><path d="M25.5 13.5L30 18m0 0l4.5 4.5M30 18l4.5-4.5M30 18l-4.5 4.5M9.196 24.14l7.932 5.665c.993.71 2.372 0 2.372-1.22V7.415c0-1.22-1.38-1.93-2.372-1.221L9.196 11.86a.75.75 0 01-.436.14H3a1.5 1.5 0 00-1.5 1.5v9A1.5 1.5 0 003 24h5.76a.75.75 0 01.436.14z" stroke="#fff" stroke-width="2" stroke-linecap="round" stroke-linejoin="round"/></svg>
